X: 1
T: Polksa #9 i D
O: Sweden
R: polska, Bodapolska
Z: 2009 John Chambers <jc:trillian.mit.edu>
S: handwritten notes from the 1970s
M: 3/4
L: 1/8
K: D
|: "D"f>e d>c B>A | AF D4 | f>e d>c B>A | "A7"AG E4 \
|     g>f e>d c2 | c2{dc} B>d c2 | c2{dc} B>d c>B | "D"B2{cB} A>G F>A |
|  "D"f>e d>c B>A | AF D4 | "D7"D2 E2 F2 | "G"G2 G4 \
|     G>g ~g2 g2 | "D"A>f ~f2 f2 | "A7"g2 ~g>e c>e | "D"d2 d4 :|
|: "D"{DA}f2 f4 | "A7"{DA}e2 e4 | "G"{D}d2 d>c B>d | "A7"c2 c4 \
|  "G"B2 B>c d>B | "D"B>A A>d f2 |1,3 "A7"g2 g>f e>d | c2 c>B A2 :|2 "A7"g2 ~g>e c>e | "D"d2 d4 :|
